styles/3/Numix/128/places/custom-user-desktop.svg

<?xml version="1.0" encoding="UTF-8" standalone="no"?>
<!-- Created with Inkscape (http://www.inkscape.org/) -->

<svg
   xmlns:dc="http://purl.org/dc/elements/1.1/"
   xmlns:cc="http://creativecommons.org/ns#"
   xmlns:rdf="http://www.w3.org/1999/02/22-rdf-syntax-ns#"
   xmlns:svg="http://www.w3.org/2000/svg"
   xmlns="http://www.w3.org/2000/svg"
   xmlns:sodipodi="http://sodipodi.sourceforge.net/DTD/sodipodi-0.dtd"
   xmlns:inkscape="http://www.inkscape.org/namespaces/inkscape"
   width="128"
   height="128"
   id="svg2"
   version="1.1"
   inkscape:version="0.91 r"
   sodipodi:docname="custom-user-desktop.svg"
   inkscape:export-filename="/media/Data/Main/Visuals/Icons/Numix/Desktop/repos/numix-wiki/Gjorgi/Numix-folders/48/New/folder-144.png"
   inkscape:export-xdpi="270"
   inkscape:export-ydpi="270">
  <defs
     id="defs4" />
  <sodipodi:namedview
     id="base"
     pagecolor="#ffffff"
     bordercolor="#666666"
     borderopacity="1.0"
     inkscape:pageopacity="0.0"
     inkscape:pageshadow="2"
     inkscape:zoom="4.2805701"
     inkscape:cx="38.155794"
     inkscape:cy="70.274462"
     inkscape:document-units="px"
     inkscape:current-layer="layer1"
     showgrid="true"
     inkscape:window-width="1280"
     inkscape:window-height="998"
     inkscape:window-x="0"
     inkscape:window-y="0"
     inkscape:window-maximized="1"
     showguides="true"
     inkscape:guide-bbox="true">
    <inkscape:grid
       type="xygrid"
       id="grid2985"
       empspacing="5"
       visible="true"
       enabled="true"
       snapvisiblegridlinesonly="true" />
  </sodipodi:namedview>
  <metadata
     id="metadata7">
    <rdf:RDF>
      <cc:Work
         rdf:about="">
        <dc:format>image/svg+xml</dc:format>
        <dc:type
           rdf:resource="http://purl.org/dc/dcmitype/StillImage" />
        <dc:title />
      </cc:Work>
    </rdf:RDF>
  </metadata>
  <g
     inkscape:label="Layer 1"
     inkscape:groupmode="layer"
     id="layer1"
     transform="translate(0,-924.3622)">
    <path
       inkscape:connector-curvature="0"
       id="path5"
       d="m 12,948.3622 104,0 0,40 -104,0 z m 0,0"
       style="fill:replacecolour2;fill-opacity:1;fill-rule:nonzero;stroke:none" />
    <path
       inkscape:connector-curvature="0"
       id="path7"
       d="m 24,948.3622 c 0,-4 0,-8 5.81641,-8 l 20.36719,0 c 5.8164,0 5.8164,4 5.8164,8 l 0,4 -32,0 z m 0,0"
       style="fill:replacecolour2;fill-opacity:1;fill-rule:nonzero;stroke:none" />
    <path
       inkscape:connector-curvature="0"
       id="path9"
       d="m 20,956.3622 88,0 0,19.87109 -88,0 z m 0,0"
       style="fill:#94979e;fill-opacity:1;fill-rule:nonzero;stroke:none" />
    <path
       inkscape:connector-curvature="0"
       id="path11"
       d="m 28,952.3622 76,0 0,52 -76,0 z m 0,0"
       style="fill:#d7d7d9;fill-opacity:1;fill-rule:nonzero;stroke:none" />
    <path
       inkscape:connector-curvature="0"
       id="path13"
       d="m 24,960.3622 76,0 0,52 -76,0 z m 0,0"
       style="fill:#f8f8f8;fill-opacity:1;fill-rule:nonzero;stroke:none" />
    <path
       inkscape:connector-curvature="0"
       id="path15"
       d="m 4,964.3622 120,0 -8.57031,72 -102.85937,0 z m 0,0"
       style="fill:replacecolour1;fill-opacity:1;fill-rule:nonzero;stroke:none" />
    <path
       style="opacity:1.0;fill:replacecolour3;fill-opacity:1"
       d="M 44 48 C 39.568 48 36 51.568 36 56 L 36 84 C 36 88.432 39.568 92 44 92 L 56 92 L 48 100 C 44 104 44 104 48 104 L 80 104 C 84 104 84 104 80 100 L 72 92 L 84 92 C 88.432 92 92 88.432 92 84 L 92 56 C 92 51.568 88.432 48 84 48 L 44 48 z M 44 56 L 84 56 L 84 84 L 44 84 L 44 56 z M 54 60 C 54 60 49.999734 60 50 64 L 50 76 C 50.000266 80 54 80 54 80 L 66 80 C 70 80 70 76 70 76 L 70 68 L 62 60 L 54 60 z M 54 64 L 60 64 L 60 70 L 66 70 L 66 76 L 54 76 L 54 64 z "
       transform="translate(0,924.3622)"
       id="path8" />
  </g>
</svg>

<!-- Created with Inkscape (http://www.inkscape.org/) -->
<svg xmlns="http://www.w3.org/2000/svg" viewBox="0 0 128 128">
 <g transform="translate(0,-924.3622)">
  <path d="m 12 948.36 104 0 0 40 -104 0 z m 0 0" style="fill:replacecolour2;fill-opacity:1;stroke:none;fill-rule:nonzero"/>
  <path d="m 24 948.36 c 0 -4 0 -8 5.816 -8 l 20.367 0 c 5.816 0 5.816 4 5.816 8 l 0 4 -32 0 z m 0 0" style="fill:replacecolour2;fill-opacity:1;stroke:none;fill-rule:nonzero"/>
  <path d="m 20 956.36 88 0 0 19.871 -88 0 z m 0 0" style="fill:#94979e;fill-opacity:1;stroke:none;fill-rule:nonzero"/>
  <path d="m 28 952.36 76 0 0 52 -76 0 z m 0 0" style="fill:#d7d7d9;fill-opacity:1;stroke:none;fill-rule:nonzero"/>
  <path d="m 24 960.36 76 0 0 52 -76 0 z m 0 0" style="fill:#f8f8f8;fill-opacity:1;stroke:none;fill-rule:nonzero"/>
  <path d="m 4 964.36 120 0 -8.57 72 -102.86 0 z m 0 0" style="fill:replacecolour1;fill-opacity:1;stroke:none;fill-rule:nonzero"/>
  <path d="m 44 48 c -4.432 0 -8 3.568 -8 8 l 0 28 c 0 4.432 3.568 8 8 8 l 12 0 l -8 8 c -4 4 -4 4 0 4 l 32 0 c 4 0 4 0 0 -4 l -8 -8 l 12 0 c 4.432 0 8 -3.568 8 -8 l 0 -28 c 0 -4.432 -3.568 -8 -8 -8 l -40 0 z m 0 8 l 40 0 l 0 28 l -40 0 l 0 -28 z m 10 4 c 0 0 -4 0 -4 4 l 0 12 c 0 4 4 4 4 4 l 12 0 c 4 0 4 -4 4 -4 l 0 -8 l -8 -8 l -8 0 z m 0 4 l 6 0 l 0 6 l 6 0 l 0 6 l -12 0 l 0 -12 z" transform="translate(0,924.3622)" style="fill:replacecolour3;opacity:1;fill-opacity:1"/>
 </g>
</svg>
